dist/svgs/core-ui-icons/free/cil-media-pause.svg

<svg xmlns="http://www.w3.org/2000/svg" viewBox="0 0 512 512"><path d="M200 48H72a24.028 24.028 0 00-24 24v368a24.028 24.028 0 0024 24h128a24.028 24.028 0 0024-24V72a24.028 24.028 0 00-24-24zm-8 384H80V80h112zM440 48H312a24.028 24.028 0 00-24 24v368a24.028 24.028 0 0024 24h128a24.028 24.028 0 0024-24V72a24.028 24.028 0 00-24-24zm-8 384H320V80h112z"/></svg>

<svg xmlns="http://www.w3.org/2000/svg" viewBox="0 0 512 512">
  <path fill="var(--ci-primary-color, currentColor)" d="M200,48H72A24.028,24.028,0,0,0,48,72V440a24.028,24.028,0,0,0,24,24H200a24.028,24.028,0,0,0,24-24V72A24.028,24.028,0,0,0,200,48Zm-8,384H80V80H192Z" class="ci-primary"/>
  <path fill="var(--ci-primary-color, currentColor)" d="M440,48H312a24.028,24.028,0,0,0-24,24V440a24.028,24.028,0,0,0,24,24H440a24.028,24.028,0,0,0,24-24V72A24.028,24.028,0,0,0,440,48Zm-8,384H320V80H432Z" class="ci-primary"/>
</svg>
